;FLAVOR:Marlin
;TIME:26668
;Filament used: 26.3733m
;Layer height: 0.2
;MINX:0.601
;MINY:38.6
;MINZ:0.2
;MAXX:209.399
;MAXY:171.4
;MAXZ:18.84
;Generated with Cura_SteamEngine 5.0.0
M140 S60
M105
M190 S60
M104 S200
M105
M109 S200
M82 ;absolute extrusion mode
G21 ;metric values
G90 ;absolute positioning
M82 ;set extruder to absolute mode
M107 ;start with the fan off
G28 X0 Y0 ;move X/Y to min endstops
G28 Z0 ;move Z to min endstops
G1 Z15.0 F100 ;move the platform down 15mm
G92 E0 ;zero the extruded length
G1 F200 E3 ;extrude 3mm of feed stock
G92 E0 ;zero the extruded length again
G1 F100
G0 Y20 F100
M117 Printing...
G5
G92 E0
G92 E0
G1 F2400 E-6
;LAYER_COUNT:72
;LAYER:0
M107
M204 S3000
M205 X10 Y10
G1 F600 Z0.275
G0 F3000 X12.034 Y39.382 Z0.275
G1 F600 Z0.2
G0 F3000 X2.827 Y46.86
M204 S1800
M205 X8 Y8
;TYPE:SKIRT
G1 F2400 E0
G1 X3.369 Y45.938 E0.0498
G1 X3.765 Y45.342 E0.08312
G1 X4.049 Y44.991 E0.10414
G1 X4.888 Y44.025 E0.16372
G1 X5.562 Y43.29 E0.21016
G1 X6.074 Y42.791 E0.24345
G1 X6.415 Y42.514 E0.26391
G1 X7.386 Y41.782 E0.32053
G1 X8.241 Y41.172 E0.36943
G1 X8.846 Y40.79 E0.40275
G1 X9.234 Y40.591 E0.42306
G1 X10.354 Y40.067 E0.48063
G1 X11.363 Y39.629 E0.53185
G1 X12.034 Y39.382 E0.56515
G1 X12.794 Y39.187 E0.60168
G1 X14.045 Y38.922 E0.66123
G1 X14.763 Y38.782 E0.69529
G1 X15.643 Y38.673 E0.73658
G1 X16.829 Y38.611 E0.79188
G1 X17.33 Y38.6 E0.81521
G1 X192.294 Y38.6 E8.96227
G1 X193.272 Y38.616 E9.00782
G1 X194.106 Y38.654 E9.04669
G1 X195.196 Y38.779 E9.09778
G1 X196.759 Y39.089 E9.17198
G1 X197.457 Y39.248 E9.20531
G1 X198.145 Y39.445 E9.23863
G1 X198.523 Y39.591 E9.2575
G1 X199.657 Y40.072 E9.31486
G1 X200.594 Y40.498 E9.36279
G1 X201.227 Y40.83 E9.39607
G1 X201.609 Y41.077 E9.41725
G1 X202.61 Y41.778 E9.47416
G1 X203.451 Y42.401 E9.52289
G1 X204.001 Y42.859 E9.55622
G1 X204.311 Y43.167 E9.57657
G1 X205.136 Y44.052 E9.63291
G1 X205.836 Y44.843 E9.68209
G1 X206.279 Y45.404 E9.71537
G1 X206.519 Y45.772 E9.73583
G1 X207.171 Y46.854 E9.79466
G1 X207.667 Y47.731 E9.84157
G1 X207.984 Y48.373 E9.87491
G1 X208.141 Y48.781 E9.89527
G1 X208.549 Y49.962 E9.95345
G1 X208.861 Y50.952 E10.00178
G1 X209.038 Y51.645 E10.03509
G1 X209.108 Y52.085 E10.05583
G1 X209.252 Y53.265 E10.11119
G1 X209.36 Y54.385 E10.16358
G1 X209.399 Y55.363 E10.20916
G1 X209.399 Y154.385 E14.82003
G1 X209.389 Y155.082 E14.85249
G1 X209.33 Y155.988 E14.89477
G1 X209.14 Y157.725 E14.97613
G1 X209.022 Y158.43 E15.00942
G1 X208.902 Y158.882 E15.03119
G1 X208.544 Y160.052 E15.08817
G1 X208.216 Y161.035 E15.13642
G1 X207.952 Y161.699 E15.16969
G1 X207.751 Y162.096 E15.19041
G1 X207.173 Y163.14 E15.24598
G1 X206.631 Y164.062 E15.29578
G1 X206.235 Y164.658 E15.3291
G1 X205.932 Y165.032 E15.35151
G1 X204.865 Y166.248 E15.42684
G1 X204.418 Y166.731 E15.45749
G1 X203.904 Y167.228 E15.49078
G1 X203.585 Y167.486 E15.50988
G1 X202.623 Y168.211 E15.56598
G1 X201.76 Y168.827 E15.61535
G1 X201.156 Y169.209 E15.64863
G1 X200.766 Y169.409 E15.66903
G1 X199.651 Y169.931 E15.72636
G1 X198.69 Y170.349 E15.77516
G1 X198.019 Y170.597 E15.80847
G1 X197.59 Y170.713 E15.82916
G1 X196.391 Y170.99 E15.88646
G1 X195.324 Y171.207 E15.93717
G1 X194.39 Y171.326 E15.98101
G1 X193.201 Y171.387 E16.03645
G1 X192.67 Y171.4 E16.06118
G1 X17.616 Y171.399 E24.21243
G1 X16.728 Y171.384 E24.25378
G1 X15.894 Y171.346 E24.29266
G1 X14.804 Y171.221 E24.34374
G1 X13.241 Y170.911 E24.41794
G1 X12.543 Y170.752 E24.45128
G1 X11.855 Y170.555 E24.4846
G1 X11.477 Y170.409 E24.50347
G1 X10.343 Y169.928 E24.56082
G1 X9.406 Y169.502 E24.60875
G1 X8.773 Y169.17 E24.64204
G1 X8.391 Y168.923 E24.66322
G1 X7.39 Y168.222 E24.72012
G1 X6.549 Y167.599 E24.76886
G1 X5.999 Y167.141 E24.80218
G1 X5.689 Y166.833 E24.82253
G1 X4.864 Y165.948 E24.87887
G1 X4.164 Y165.157 E24.92805
G1 X3.721 Y164.596 E24.96134
G1 X3.481 Y164.228 E24.9818
G1 X2.829 Y163.146 E25.04062
G1 X2.333 Y162.269 E25.08754
G1 X2.016 Y161.627 E25.12087
G1 X1.859 Y161.219 E25.14123
G1 X1.451 Y160.038 E25.19941
G1 X1.139 Y159.048 E25.24775
G1 X0.962 Y158.355 E25.28105
G1 X0.892 Y157.915 E25.3018
G1 X0.747 Y156.732 E25.35729
G1 X0.638 Y155.596 E25.41043
G1 X0.601 Y154.629 E25.4555
G1 X0.601 Y55.615 E30.066
G1 X0.611 Y54.918 E30.09846
G1 X0.67 Y54.012 E30.14074
G1 X0.86 Y52.275 E30.2221
G1 X0.978 Y51.57 E30.25539
G1 X1.098 Y51.118 E30.27716
G1 X1.456 Y49.948 E30.33414
G1 X1.784 Y48.965 E30.38239
G1 X2.048 Y48.301 E30.41566
G1 X2.249 Y47.904 E30.43638
G1 X2.827 Y46.86 E30.49195
M204 S3000
M205 X10 Y10
G1 F2400 E24.49195
G0 F3000 X1.721 Y55.631
M204 S1800
M205 X8 Y8
G1 F2400 E30.49195
G1 X1.731 Y54.934 E30.52441
G1 X1.786 Y54.103 E30.56319
G1 X1.973 Y52.398 E30.64305
G1 X2.084 Y51.758 E30.6733
G1 X2.17 Y51.443 E30.6885
G1 X2.518 Y50.303 E30.74401
G1 X2.846 Y49.32 E30.79226
G1 X3.23 Y48.444 E30.8368
G1 X3.792 Y47.427 E30.8909
G1 X4.334 Y46.505 E30.9407
G1 X4.895 Y45.724 E30.98548
G1 X5.713 Y44.782 E31.04357
G1 X6.387 Y44.047 E31.09001
G1 X7.091 Y43.407 E31.13431
G1 X8.036 Y42.694 E31.18943
G1 X8.891 Y42.084 E31.23834
G1 X9.711 Y41.604 E31.28258
G1 X10.8 Y41.095 E31.33856
G1 X11.809 Y40.657 E31.38978
G1 X12.691 Y40.363 E31.43307
G1 X13.185 Y40.247 E31.4567
G1 X14.26 Y40.022 E31.50784
G1 X14.978 Y39.882 E31.5419
G1 X15.704 Y39.792 E31.57596
G1 X16.86 Y39.731 E31.62987
G1 X17.33 Y39.72 E31.65176
G1 X192.294 Y39.72 E39.79881
G1 X193.225 Y39.735 E39.84217
G1 X194.027 Y39.771 E39.87955
G1 X194.98 Y39.879 E39.92421
G1 X196.511 Y40.181 E39.99688
G1 X197.209 Y40.34 E40.03021
G1 X198.088 Y40.623 E40.07321
G1 X199.193 Y41.091 E40.12909
G1 X200.13 Y41.517 E40.17702
G1 X200.968 Y41.995 E40.22194
G1 X201.943 Y42.678 E40.27737
G1 X202.784 Y43.301 E40.32611
G1 X203.493 Y43.933 E40.37033
G1 X204.297 Y44.794 E40.42519
G1 X204.997 Y45.585 E40.47437
G1 X205.561 Y46.352 E40.5187
G1 X206.196 Y47.406 E40.576
G1 X206.692 Y48.283 E40.62291
G1 X207.083 Y49.148 E40.66711
G1 X207.481 Y50.299 E40.72382
G1 X207.793 Y51.289 E40.77216
G1 X207.996 Y52.223 E40.81666
G1 X208.138 Y53.372 E40.87057
G1 X208.246 Y54.492 E40.92297
G1 X208.279 Y55.386 E40.96462
G1 X208.279 Y154.369 E45.57369
G1 X208.269 Y155.066 E45.60615
G1 X208.214 Y155.897 E45.64492
G1 X208.027 Y157.602 E45.72479
G1 X207.916 Y158.242 E45.75504
G1 X207.83 Y158.557 E45.77024
G1 X207.482 Y159.697 E45.82574
G1 X207.154 Y160.68 E45.874
G1 X206.77 Y161.556 E45.91854
G1 X206.208 Y162.573 E45.97264
G1 X205.666 Y163.495 E46.02244
G1 X205.303 Y164.033 E46.05266
G1 X205.089 Y164.294 E46.06838
G1 X204.043 Y165.487 E46.14226
G1 X203.596 Y165.97 E46.1729
G1 X202.909 Y166.593 E46.21609
G1 X201.973 Y167.3 E46.27071
G1 X201.11 Y167.916 E46.32008
G1 X200.289 Y168.396 E46.36436
G1 X199.204 Y168.904 E46.42015
G1 X198.243 Y169.322 E46.46895
G1 X197.336 Y169.622 E46.51343
G1 X196.168 Y169.892 E46.56925
G1 X195.101 Y170.109 E46.61995
G1 X194.33 Y170.208 E46.65615
G1 X193.169 Y170.268 E46.71028
G1 X192.67 Y170.28 E46.73352
G1 X17.632 Y170.279 E54.88403
G1 X16.775 Y170.265 E54.92394
G1 X15.973 Y170.229 E54.96132
G1 X15.02 Y170.121 E55.00598
G1 X13.489 Y169.819 E55.07864
G1 X12.791 Y169.66 E55.11198
G1 X11.912 Y169.377 E55.15497
G1 X10.807 Y168.909 E55.21085
G1 X9.87 Y168.483 E55.25878
G1 X9.032 Y168.005 E55.3037
G1 X8.057 Y167.322 E55.35913
G1 X7.216 Y166.699 E55.40787
G1 X6.507 Y166.067 E55.4521
G1 X5.703 Y165.206 E55.50695
G1 X5.003 Y164.415 E55.55613
G1 X4.439 Y163.648 E55.60046
G1 X3.804 Y162.594 E55.65776
G1 X3.308 Y161.717 E55.70468
G1 X2.917 Y160.852 E55.74888
G1 X2.519 Y159.701 E55.80559
G1 X2.207 Y158.711 E55.85392
G1 X2.004 Y157.777 E55.89843
G1 X1.862 Y156.625 E55.95248
G1 X1.753 Y155.489 E56.00562
G1 X1.721 Y154.608 E56.04667
G1 X1.721 Y55.631 E60.65545
M204 S3000
M205 X10 Y10
G0 F3000 X1.161 Y55.623
M204 S1800
M205 X8 Y8
G1 F2400 X1.171 Y54.926 E60.68791
G1 X1.228 Y54.057 E60.72846
G1 X1.417 Y52.337 E60.80903
G1 X1.531 Y51.663 E60.84086
G1 X1.634 Y51.281 E60.85928
G1 X1.987 Y50.126 E60.91552
G1 X2.315 Y49.143 E60.96378
G1 X2.569 Y48.508 E60.99562
G1 X2.739 Y48.174 E61.01307
G1 X3.309 Y47.143 E61.06793
G1 X3.851 Y46.221 E61.11773
G1 X4.232 Y45.654 E61.14954
G1 X4.472 Y45.357 E61.16732
G1 X5.301 Y44.404 E61.22613
G1 X5.975 Y43.669 E61.27257
G1 X6.465 Y43.193 E61.30438
G1 X6.753 Y42.96 E61.32163
G1 X7.711 Y42.238 E61.37749
G1 X8.566 Y41.628 E61.42639
G1 X9.145 Y41.264 E61.45824
G1 X9.472 Y41.097 E61.47534
G1 X10.577 Y40.581 E61.53212
G1 X11.586 Y40.143 E61.58334
G1 X12.227 Y39.908 E61.61513
G1 X12.923 Y39.732 E61.64856
G1 X14.152 Y39.472 E61.70706
G1 X14.87 Y39.332 E61.74112
G1 X15.674 Y39.232 E61.77885
G1 X16.845 Y39.171 E61.83345
G1 X17.33 Y39.16 E61.85604
G1 X192.294 Y39.16 E70.00309
G1 X193.248 Y39.175 E70.04752
G1 X194.066 Y39.213 E70.08565
G1 X195.088 Y39.329 E70.13355
G1 X196.635 Y39.635 E70.20698
G1 X197.333 Y39.794 E70.24031
G1 X198.306 Y40.107 E70.2879
G1 X199.425 Y40.582 E70.34451
G1 X200.362 Y41.008 E70.39244
G1 X200.966 Y41.326 E70.42422
G1 X201.288 Y41.536 E70.44212
G1 X202.276 Y42.228 E70.49829
G1 X203.117 Y42.851 E70.54702
G1 X203.642 Y43.289 E70.57886
G1 X203.902 Y43.55 E70.59602
G1 X204.716 Y44.423 E70.6516
G1 X205.416 Y45.214 E70.70078
G1 X205.838 Y45.751 E70.73258
G1 X206.04 Y46.062 E70.74985
G1 X206.683 Y47.13 E70.8079
G1 X207.179 Y48.007 E70.85481
G1 X207.48 Y48.62 E70.88661
G1 X207.612 Y48.965 E70.90381
G1 X208.015 Y50.131 E70.96126
G1 X208.327 Y51.121 E71.00959
G1 X208.494 Y51.783 E71.04138
G1 X208.552 Y52.154 E71.05887
G1 X208.695 Y53.318 E71.11348
G1 X208.803 Y54.438 E71.16587
G1 X208.839 Y55.375 E71.20953
G1 X208.839 Y154.377 E75.81948
G1 X208.829 Y155.074 E75.85194
G1 X208.772 Y155.943 E75.89249
G1 X208.583 Y157.663 E75.97306
G1 X208.469 Y158.337 E76.00489
G1 X208.366 Y158.719 E76.02332
G1 X208.013 Y159.874 E76.07955
G1 X207.685 Y160.857 E76.12781
G1 X207.431 Y161.492 E76.15965
G1 X207.261 Y161.826 E76.1771
G1 X206.691 Y162.857 E76.23196
G1 X206.149 Y163.779 E76.28176
G1 X205.768 Y164.346 E76.31357
G1 X205.511 Y164.663 E76.33257
G1 X204.454 Y165.868 E76.40721
G1 X204.007 Y166.351 E76.43785
G1 X203.515 Y166.824 E76.46963
G1 X203.247 Y167.04 E76.48566
G1 X202.298 Y167.755 E76.54099
G1 X201.435 Y168.371 E76.59036
G1 X200.857 Y168.735 E76.62217
G1 X200.528 Y168.903 E76.63937
G1 X199.427 Y169.417 E76.69595
G1 X198.466 Y169.835 E76.74474
G1 X197.825 Y170.071 E76.77655
G1 X197.463 Y170.168 E76.794
G1 X196.28 Y170.441 E76.85054
G1 X195.213 Y170.658 E76.90124
G1 X194.36 Y170.767 E76.94128
G1 X193.185 Y170.828 E76.99607
G1 X192.67 Y170.84 E77.02005
G1 X17.624 Y170.839 E85.17093
G1 X16.752 Y170.825 E85.21154
G1 X15.934 Y170.787 E85.24967
G1 X14.912 Y170.671 E85.29756
G1 X13.365 Y170.365 E85.37099
G1 X12.667 Y170.206 E85.40433
G1 X11.694 Y169.893 E85.45192
G1 X10.575 Y169.418 E85.50852
G1 X9.638 Y168.992 E85.55645
G1 X9.034 Y168.674 E85.58824
G1 X8.712 Y168.464 E85.60614
G1 X7.724 Y167.772 E85.66231
G1 X6.883 Y167.149 E85.71104
G1 X6.358 Y166.711 E85.74288
G1 X6.098 Y166.45 E85.76003
G1 X5.284 Y165.577 E85.81561
G1 X4.584 Y164.786 E85.8648
G1 X4.162 Y164.249 E85.8966
G1 X3.96 Y163.938 E85.91387
G1 X3.317 Y162.87 E85.97191
G1 X2.821 Y161.993 E86.01883
G1 X2.52 Y161.38 E86.05063
G1 X2.388 Y161.035 E86.06783
G1 X1.985 Y159.869 E86.12527
G1 X1.673 Y158.879 E86.17361
G1 X1.506 Y158.217 E86.2054
G1 X1.448 Y157.846 E86.22288
G1 X1.305 Y156.679 E86.27763
G1 X1.196 Y155.543 E86.33077
G1 X1.161 Y154.618 E86.37387
G1 X1.161 Y55.623 E90.9835
M204 S3000
M205 X10 Y10
G1 F2400 E84.9835
G1 F600 Z0.275
G0 F3000 X39.54 Y145.04 Z0.275
M204 S1800
M205 X8 Y8
;TYPE:SUPPORT
G1 F600 Z0.2
G1 F2400 E90.9835
G1 F2100 X39.54 Y147.46 E91.06398
G1 X66.46 Y147.46 E91.95935
G1 X66.46 Y146.25 E91.99959
G1 X66.46 Y145.04 E92.03984
G1 X39.54 Y145.04 E92.9352
M204 S3000
M205 X10 Y10
G0 F3000 X40 Y145.18
M204 S1800
M205 X8 Y8
G1 F1500 X40 Y147.32 E93.03485
M204 S3000
M205 X10 Y10
G1 F2400 E87.03485
G0 F3000 X43.457 Y145.179
M204 S1800
M205 X8 Y8
G1 F2400 E93.03485
G1 F1500 X47.163 Y147.318 E93.2341
M204 S3000
M205 X10 Y10
G0 F3000 X48 Y147.32
M204 S1800
M205 X8 Y8
G1 F1500 X48 Y145.18 E93.33374
M204 S3000
M205 X10 Y10
G0 F3000 X48.835 Y147.319
M204 S1800
M205 X8 Y8
G1 F1500 X52.541 Y145.179 E93.53301
M204 S3000
M205 X10 Y10
G0 F3000 X56 Y145.18
M204 S1800
M205 X8 Y8
G1 F1500 X56 Y147.32 E93.63266
M204 S3000
M205 X10 Y10
G1 F2400 E87.63266
G0 F3000 X59.458 Y145.179
M204 S1800
M205 X8 Y8
G1 F2400 E93.63266
G1 F1500 X63.163 Y147.318 E93.83187
M204 S3000
M205 X10 Y10
G0 F3000 X64 Y147.32
M204 S1800
M205 X8 Y8
G1 F1500 X64 Y145.18 E93.93152
M204 S3000
M205 X10 Y10
G0 F3000 X64.835 Y147.319
M204 S1800
M205 X8 Y8
G1 F1500 X66.319 Y146.462 E94.01131
M204 S3000
M205 X10 Y10
G0 F3000 X66.8 Y144.7
M204 S1800
M205 X8 Y8
;TYPE:SUPPORT-INTERFACE
G1 F1500 X39.2 Y144.7 E95.29648
G1 X39.2 Y147.8 E95.44083
G1 X66.8 Y147.8 E96.726
G1 X66.8 Y144.7 E96.87035
M204 S3000
M205 X10 Y10
G1 F2400 E90.87035
G0 F3000 X82.909 Y151.6
M204 S1800
M205 X8 Y8
G1 F2400 E96.87035
G1 F1500 X23.091 Y151.6 E99.65573
G1 X21.437 Y151.271 E99.73426
G1 X20.113 Y150.387 E99.80839
G1 X19.229 Y149.063 E99.88252
G1 X18.9 Y147.409 E99.96104
G1 X18.9 Y80.091 E103.09565
G1 X19.229 Y78.437 E103.17418
G1 X20.113 Y77.113 E103.2483
G1 X21.437 Y76.229 E103.32243
G1 X23.091 Y75.9 E103.40096
G1 X82.909 Y75.9 E106.18634
G1 X84.563 Y76.229 E106.26486
G1 X85.887 Y77.113 E106.33899
G1 X86.771 Y78.437 E106.41312
G1 X87.1 Y80.091 E106.49165
G1 X87.1 Y147.409 E109.62626
G1 X86.771 Y149.063 E109.70478
G1 X85.887 Y150.387 E109.77891
G1 X84.563 Y151.271 E109.85304
G1 X82.909 Y151.6 E109.93157
M204 S3000
M205 X10 Y10
G0 F3000 X82.86 Y151.12
M204 S1800
M205 X8 Y8
G1 F1500 X84.378 Y150.818 E110.00364
G1 X85.541 Y150.041 E110.06877
G1 X86.318 Y148.878 E110.13389
G1 X86.62 Y147.36 E110.20596
G1 X86.62 Y80.548 E113.31701
G1 X86.62 Y80.136 E113.3362
G1 X86.318 Y78.622 E113.40808
G1 X85.541 Y77.459 E113.47321
G1 X84.378 Y76.682 E113.53834
G1 X82.86 Y76.38 E113.61041
G1 X23.14 Y76.38 E116.39122
G1 X21.622 Y76.682 E116.46329
G1 X20.459 Y77.459 E116.52842
G1 X19.682 Y78.622 E116.59355
G1 X19.38 Y80.14 E116.66562
G1 X19.38 Y147.364 E119.79585
G1 X19.682 Y148.878 E119.86774
G1 X20.459 Y150.041 E119.93286
G1 X21.622 Y150.818 E119.99799
G1 X23.14 Y151.119 E120.07005
G1 X82.86 Y151.12 E122.85087
M204 S3000
M205 X10 Y10
G0 F3000 X82.802 Y150.56
M204 S1800
M205 X8 Y8
G1 F1500 X84.162 Y150.289 E122.91544
G1 X85.137 Y149.637 E122.97005
G1 X85.789 Y148.662 E123.02467
G1 X86.06 Y147.302 E123.08924
G1 X86.06 Y80.547 E126.19764
G1 X86.06 Y80.19 E126.21426
G1 X85.789 Y78.838 E126.27847
G1 X85.137 Y77.863 E126.33308
G1 X84.162 Y77.211 E126.3877
G1 X82.802 Y76.94 E126.45227
G1 X23.198 Y76.94 E129.22768
G1 X21.838 Y77.211 E129.29225
G1 X20.863 Y77.863 E129.34687
G1 X20.211 Y78.838 E129.40149
G1 X19.94 Y80.198 E129.46606
G1 X19.941 Y147.31 E132.59107
G1 X20.211 Y148.662 E132.65527
G1 X20.863 Y149.637 E132.70989
G1 X21.838 Y150.289 E132.7645
G1 X23.197 Y150.559 E132.82902
G1 X82.802 Y150.56 E135.60448
M204 S3000
M205 X10 Y10
G0 F3000 X82.744 Y149.999
M204 S1800
M205 X8 Y8
G1 F1500 X83.946 Y149.76 E135.66155
G1 X84.733 Y149.233 E135.70565
G1 X85.26 Y148.446 E135.74975
G1 X85.499 Y147.244 E135.80682
G1 X85.5 Y80.547 E138.91251
G1 X85.5 Y80.244 E138.92662
G1 X85.26 Y79.054 E138.98315
G1 X84.733 Y78.267 E139.02725
G1 X83.946 Y77.74 E139.07135
G1 X82.744 Y77.5 E139.12843
G1 X23.256 Y77.5 E141.89844
G1 X22.054 Y77.74 E141.95551
G1 X21.267 Y78.267 E141.99962
G1 X20.74 Y79.054 E142.04372
G1 X20.5 Y80.256 E142.10079
G1 X20.501 Y146.954 E145.20653
G1 X20.502 Y147.256 E145.22059
G1 X20.74 Y148.446 E145.2771
G1 X21.267 Y149.233 E145.32121
G1 X22.054 Y149.76 E145.36531
G1 X23.254 Y149.999 E145.42229
G1 X38.478 Y149.999 E146.13118
G1 F1473.7 X39 Y149.989 E146.15592
G1 F1448.3 X66.998 Y149.989 E147.50619
G1 F1473.7 X67.519 Y149.999 E147.53089
G1 F1500 X82.744 Y149.999 E148.23983
M204 S3000
M205 X10 Y10
G0 F3000 X82.686 Y149.439
M204 S1800
M205 X8 Y8
G1 F1500 X83.729 Y149.231 E148.28935
G1 X84.329 Y148.829 E148.32298
G1 X84.732 Y148.227 E148.35671
G1 X84.939 Y147.186 E148.40613
G1 X84.939 Y80.548 E151.50908
G1 X84.89 Y80.055 E151.53215
G1 X84.731 Y79.271 E151.5694
G1 X84.329 Y78.671 E151.60303
G1 X83.729 Y78.269 E151.63666
