;FLAVOR:Marlin
;TIME:6936
;Filament used: 6.52239m
;Layer height: 0.2
;MINX:11.351
;MINY:47.6
;MINZ:0.2
;MAXX:198.65
;MAXY:162.4
;MAXZ:6.95
;Generated with Cura_SteamEngine 5.0.0
M140 S60
M105
M190 S60
M104 S200
M105
M109 S200
M82 ;absolute extrusion mode
G21 ;metric values
G90 ;absolute positioning
M82 ;set extruder to absolute mode
M107 ;start with the fan off
G28 X0 Y0 ;move X/Y to min endstops
G28 Z0 ;move Z to min endstops
G1 Z15.0 F100 ;move the platform down 15mm
G92 E0 ;zero the extruded length
G1 F200 E3 ;extrude 3mm of feed stock
G92 E0 ;zero the extruded length again
G1 F100
G0 Y20 F100
M117 Printing...
G5
G92 E0
G92 E0
G1 F2400 E-6
;LAYER_COUNT:26
;LAYER:0
M107
M204 S3000
M205 X10 Y10
G1 F600 Z0.275
G0 F3000 X16.388 Y64.258 Z0.275
G1 F600 Z0.2
G0 F3000 X11.351 Y71.114
M204 S1800
M205 X8 Y8
;TYPE:SKIRT
G1 F2400 E0
G1 X11.36 Y70.425 E0.03209
G1 X11.409 Y69.712 E0.06536
G1 X11.537 Y69.008 E0.09868
G1 X11.744 Y68.323 E0.132
G1 X12.025 Y67.666 E0.16528
G1 X12.378 Y67.044 E0.19858
G1 X12.799 Y66.465 E0.23191
G1 X13.281 Y65.937 E0.2652
G1 X13.819 Y65.466 E0.2985
G1 X14.406 Y65.057 E0.33181
G1 X15.036 Y64.717 E0.36515
G1 X15.699 Y64.45 E0.39843
G1 X16.388 Y64.258 E0.43173
G1 X17.094 Y64.144 E0.46503
G1 X17.901 Y64.103 E0.50266
G1 X31.209 Y64.1 E1.12234
G1 X33.871 Y64.062 E1.2463
G1 X36.511 Y63.95 E1.36934
G1 X39.156 Y63.763 E1.49281
G1 X41.813 Y63.499 E1.61714
G1 X44.428 Y63.165 E1.7399
G1 X47.024 Y62.757 E1.86226
G1 X49.631 Y62.272 E1.98574
G1 X52.239 Y61.711 E2.10995
G1 X54.76 Y61.094 E2.23081
G1 X57.347 Y60.382 E2.35575
G1 X59.903 Y59.599 E2.48023
G1 X62.37 Y58.767 E2.60146
G1 X64.892 Y57.837 E2.72662
G1 X67.34 Y56.853 E2.84947
G1 X69.753 Y55.803 E2.97201
G1 X72.165 Y54.673 E3.09604
G1 X74.515 Y53.489 E3.21857
G1 X76.863 Y52.221 E3.34282
G1 X79.136 Y50.91 E3.46501
G1 X81.431 Y49.499 E3.59045
G1 X82.807 Y48.619 E3.66651
G1 X83.43 Y48.268 E3.69981
G1 X84.088 Y47.989 E3.73309
G1 X84.774 Y47.784 E3.76642
G1 X85.478 Y47.658 E3.79973
G1 X86.038 Y47.615 E3.82588
G1 X86.58 Y47.6 E3.85113
G1 X191.543 Y47.6 E8.73864
G1 X192.333 Y47.611 E8.77543
G1 X193.046 Y47.661 E8.80871
G1 X193.75 Y47.79 E8.84204
G1 X194.434 Y47.998 E8.87533
G1 X195.091 Y48.28 E8.90862
G1 X195.713 Y48.634 E8.94195
G1 X196.291 Y49.055 E8.97524
G1 X196.819 Y49.538 E9.00857
G1 X197.289 Y50.076 E9.04183
G1 X197.697 Y50.664 E9.07516
G1 X198.036 Y51.294 E9.10847
G1 X198.303 Y51.957 E9.14175
G1 X198.494 Y52.647 E9.17509
G1 X198.607 Y53.353 E9.20838
G1 X198.647 Y54.15 E9.24554
G1 X198.65 Y117.343 E12.18807
G1 X198.641 Y118.07 E12.22192
G1 X198.592 Y118.784 E12.25525
G1 X198.464 Y119.488 E12.28857
G1 X198.258 Y120.173 E12.32188
G1 X197.977 Y120.83 E12.35515
G1 X197.624 Y121.453 E12.38849
G1 X197.204 Y122.032 E12.4218
G1 X196.722 Y122.56 E12.45509
G1 X196.185 Y123.032 E12.48838
G1 X195.597 Y123.44 E12.5217
G1 X194.968 Y123.781 E12.55502
G1 X194.305 Y124.049 E12.58832
G1 X193.616 Y124.241 E12.62162
G1 X192.91 Y124.356 E12.65493
G1 X192.396 Y124.389 E12.67892
G1 X189.762 Y124.453 E12.8016
G1 X187.123 Y124.585 E12.92464
G1 X184.454 Y124.793 E13.04929
G1 X181.835 Y125.072 E13.17194
G1 X179.224 Y125.426 E13.29463
G1 X176.578 Y125.861 E13.41949
G1 X174.007 Y126.359 E13.54143
G1 X171.416 Y126.936 E13.66504
G1 X168.855 Y127.583 E13.78803
G1 X166.314 Y128.303 E13.91101
G1 X163.776 Y129.1 E14.03488
G1 X161.266 Y129.968 E14.15855
G1 X158.801 Y130.898 E14.28123
G1 X156.349 Y131.903 E14.40462
G1 X153.936 Y132.974 E14.52755
G1 X151.53 Y134.123 E14.6517
G1 X149.197 Y135.32 E14.7738
G1 X146.856 Y136.605 E14.89815
G1 X144.571 Y137.946 E15.02152
G1 X142.351 Y139.334 E15.14343
G1 X140.112 Y140.824 E15.26867
G1 X137.966 Y142.341 E15.39104
G1 X135.873 Y143.912 E15.5129
G1 X133.782 Y145.574 E15.63727
G1 X131.74 Y147.296 E15.76165
G1 X129.798 Y149.028 E15.88282
G1 X127.843 Y150.874 E16.00802
G1 X125.974 Y152.744 E16.13113
G1 X124.164 Y154.656 E16.25373
G1 X122.402 Y156.63 E16.37694
G1 X121.116 Y158.14 E16.46929
G1 X120.622 Y158.658 E16.50262
G1 X120.074 Y159.118 E16.53594
G1 X119.478 Y159.513 E16.56923
G1 X118.842 Y159.84 E16.60253
G1 X118.173 Y160.093 E16.63584
G1 X117.48 Y160.27 E16.66914
G1 X116.772 Y160.369 E16.70243
G1 X116.376 Y160.39 E16.7209
G1 X113.019 Y160.46 E16.87725
G1 X110.421 Y160.587 E16.99836
G1 X107.75 Y160.796 E17.12312
G1 X105.115 Y161.077 E17.24651
G1 X102.526 Y161.427 E17.36816
G1 X99.849 Y161.866 E17.49448
G1 X97.683 Y162.278 E17.59714
G1 X96.669 Y162.388 E17.64464
G1 X96.17 Y162.4 E17.66788
G1 X18.374 Y162.399 E21.29039
G1 X17.676 Y162.39 E21.32289
G1 X16.963 Y162.341 E21.35617
G1 X16.259 Y162.213 E21.38949
G1 X15.574 Y162.007 E21.4228
G1 X14.917 Y161.725 E21.45609
G1 X14.295 Y161.372 E21.48939
G1 X13.716 Y160.952 E21.5227
G1 X13.187 Y160.47 E21.55602
G1 X12.716 Y159.932 E21.58932
G1 X12.308 Y159.345 E21.6226
G1 X11.968 Y158.715 E21.65594
G1 X11.7 Y158.052 E21.68924
G1 X11.508 Y157.363 E21.72254
G1 X11.394 Y156.657 E21.75584
G1 X11.352 Y155.831 E21.79435
G1 X11.351 Y71.114 E25.73913
M204 S3000
M205 X10 Y10
G0 F3000 X11.91 Y71.122
M204 S1800
M205 X8 Y8
G1 F2400 X11.919 Y70.433 E25.77122
G1 X11.968 Y69.751 E25.80306
G1 X12.096 Y69.08 E25.83486
G1 X12.302 Y68.429 E25.86666
G1 X12.582 Y67.806 E25.89846
G1 X12.934 Y67.219 E25.93033
G1 X13.351 Y66.678 E25.96214
G1 X13.828 Y66.19 E25.99392
G1 X14.36 Y65.76 E26.02577
G1 X14.938 Y65.396 E26.05758
G1 X15.554 Y65.101 E26.08938
G1 X16.201 Y64.881 E26.1212
G1 X16.869 Y64.737 E26.15302
G1 X17.595 Y64.671 E26.18696
G1 X18.08 Y64.66 E26.20955
G1 X31.217 Y64.66 E26.82127
G1 X33.868 Y64.623 E26.94472
G1 X36.575 Y64.508 E27.07088
G1 X39.178 Y64.323 E27.1924
G1 X41.87 Y64.056 E27.31836
G1 X44.517 Y63.717 E27.44262
G1 X47.11 Y63.31 E27.56484
G1 X49.768 Y62.816 E27.69073
G1 X52.361 Y62.258 E27.81424
G1 X54.898 Y61.637 E27.93586
G1 X57.515 Y60.916 E28.06225
G1 X60.037 Y60.144 E28.18507
G1 X62.598 Y59.28 E28.31092
G1 X65.087 Y58.362 E28.43445
G1 X67.522 Y57.384 E28.55664
G1 X69.993 Y56.309 E28.68212
G1 X72.403 Y55.179 E28.80606
G1 X74.811 Y53.967 E28.93159
G1 X77.116 Y52.722 E29.05357
G1 X79.416 Y51.395 E29.17722
G1 X81.728 Y49.973 E29.30361
G1 X83.108 Y49.091 E29.37987
G1 X83.705 Y48.757 E29.41172
G1 X84.336 Y48.495 E29.44354
G1 X84.993 Y48.309 E29.47533
G1 X85.668 Y48.201 E29.50716
G1 X86.383 Y48.163 E29.5405
G1 X191.543 Y48.16 E34.43719
G1 X192.325 Y48.171 E34.47361
G1 X193.006 Y48.22 E34.5054
G1 X193.677 Y48.349 E34.53722
G1 X194.328 Y48.556 E34.56903
G1 X194.951 Y48.837 E34.60085
G1 X195.537 Y49.189 E34.63268
G1 X196.077 Y49.607 E34.66448
G1 X196.565 Y50.085 E34.69629
G1 X196.994 Y50.617 E34.72811
G1 X197.358 Y51.195 E34.75992
G1 X197.652 Y51.812 E34.79174
G1 X197.871 Y52.459 E34.82355
G1 X198.014 Y53.127 E34.85536
G1 X198.079 Y53.846 E34.88898
G1 X198.09 Y54.33 E34.91152
G1 X198.09 Y117.336 E37.84534
G1 X198.081 Y118.063 E37.8792
G1 X198.032 Y118.745 E37.91104
G1 X197.904 Y119.416 E37.94284
G1 X197.699 Y120.068 E37.97467
G1 X197.419 Y120.691 E38.00647
G1 X197.069 Y121.277 E38.03826
G1 X196.652 Y121.819 E38.0701
G1 X196.175 Y122.308 E38.10191
G1 X195.644 Y122.737 E38.13369
G1 X195.066 Y123.102 E38.16553
G1 X194.45 Y123.397 E38.19733
G1 X193.803 Y123.618 E38.22917
G1 X193.135 Y123.762 E38.26098
G1 X192.383 Y123.829 E38.29614
G1 X189.759 Y123.893 E38.41836
G1 X187.05 Y124.028 E38.54466
G1 X184.424 Y124.233 E38.66731
G1 X181.771 Y124.516 E38.79154
G1 X179.133 Y124.873 E38.9155
G1 X176.484 Y125.308 E39.0405
G1 X173.889 Y125.811 E39.16358
G1 X171.294 Y126.389 E39.28738
G1 X168.733 Y127.036 E39.41038
G1 X166.138 Y127.772 E39.53598
G1 X163.571 Y128.578 E39.66126
G1 X161.105 Y129.43 E39.78275
G1 X158.599 Y130.376 E39.90748
G1 X156.105 Y131.398 E40.03298
G1 X153.687 Y132.471 E40.15616
G1 X151.311 Y133.606 E40.27877
G1 X148.922 Y134.832 E40.40381
G1 X146.596 Y136.109 E40.52736
G1 X144.285 Y137.465 E40.65213
G1 X142.023 Y138.88 E40.77637
G1 X139.821 Y140.344 E40.8995
G1 X137.648 Y141.88 E41.02341
G1 X135.507 Y143.487 E41.14806
G1 X133.431 Y145.138 E41.27157
G1 X131.364 Y146.881 E41.39747
G1 X129.419 Y148.616 E41.51883
G1 X127.458 Y150.467 E41.6444
G1 X125.567 Y152.359 E41.76896
G1 X123.752 Y154.277 E41.89192
G1 X121.974 Y156.269 E42.01625
G1 X120.689 Y157.777 E42.1085
G1 X120.217 Y158.271 E42.14032
G1 X119.69 Y158.705 E42.17211
G1 X119.116 Y159.076 E42.20393
G1 X118.502 Y159.376 E42.23575
G1 X117.858 Y159.603 E42.26755
G1 X117.191 Y159.754 E42.29939
G1 X116.364 Y159.83 E42.33806
G1 X113.014 Y159.899 E42.49408
G1 X110.349 Y160.031 E42.61833
G1 X107.717 Y160.236 E42.74126
G1 X105.054 Y160.52 E42.86596
G1 X102.435 Y160.874 E42.98902
G1 X99.772 Y161.311 E43.11468
G1 X97.579 Y161.728 E43.21863
G1 X96.653 Y161.829 E43.262
G1 X96.17 Y161.84 E43.2845
G1 X18.382 Y161.84 E46.90663
G1 X17.684 Y161.831 E46.93914
G1 X17.002 Y161.782 E46.97098
G1 X16.331 Y161.654 E47.00278
G1 X15.68 Y161.448 E47.03458
G1 X15.056 Y161.168 E47.06643
G1 X14.47 Y160.817 E47.09823
G1 X13.929 Y160.4 E47.13004
G1 X13.44 Y159.922 E47.16188
G1 X13.011 Y159.391 E47.19367
G1 X12.646 Y158.813 E47.2255
G1 X12.352 Y158.197 E47.25728
G1 X12.131 Y157.55 E47.28912
G1 X11.987 Y156.882 E47.32094
G1 X11.921 Y156.149 E47.35521
G1 X11.91 Y155.658 E47.37807
G1 X11.91 Y71.122 E51.31442
M204 S3000
M205 X10 Y10
G0 F3000 X12.47 Y71.129
M204 S1800
M205 X8 Y8
G1 F2400 X12.479 Y70.44 E51.34651
G1 X12.528 Y69.792 E51.37677
G1 X12.655 Y69.155 E51.40702
G1 X12.86 Y68.539 E51.43725
G1 X13.139 Y67.952 E51.46751
G1 X13.488 Y67.404 E51.49776
G1 X13.902 Y66.903 E51.52802
G1 X14.374 Y66.457 E51.55826
G1 X14.897 Y66.072 E51.5885
G1 X15.464 Y65.754 E51.61877
G1 X16.065 Y65.508 E51.64901
G1 X16.692 Y65.338 E51.67926
G1 X17.611 Y65.231 E51.72234
G1 X18.08 Y65.22 E51.74419
G1 X31.225 Y65.22 E52.35627
G1 X33.9 Y65.182 E52.48085
G1 X36.566 Y65.069 E52.6051
G1 X39.273 Y64.877 E52.73146
G1 X41.926 Y64.614 E52.8556
G1 X44.566 Y64.276 E52.97954
G1 X47.23 Y63.858 E53.1051
G1 X49.851 Y63.37 E53.22924
G1 X52.502 Y62.8 E53.35551
G1 X55.035 Y62.18 E53.47694
G1 X57.66 Y61.457 E53.60372
G1 X60.235 Y60.669 E53.72911
G1 X62.762 Y59.816 E53.8533
G1 X65.281 Y58.887 E53.97832
G1 X67.777 Y57.885 E54.10356
G1 X70.204 Y56.829 E54.2268
G1 X72.643 Y55.685 E54.35225
G1 X75.051 Y54.473 E54.47777
G1 X77.396 Y53.206 E54.60189
G1 X79.727 Y51.862 E54.72718
G1 X81.986 Y50.472 E54.85068
G1 X83.41 Y49.562 E54.92937
G1 X83.978 Y49.247 E54.95962
G1 X84.58 Y49.003 E54.98986
G1 X85.208 Y48.836 E55.02012
G1 X86.076 Y48.734 E55.06082
G1 X86.58 Y48.72 E55.08429
G1 X191.543 Y48.72 E59.97181
G1 X192.317 Y48.731 E60.00786
G1 X192.964 Y48.78 E60.03807
G1 X193.601 Y48.908 E60.06832
G1 X194.217 Y49.114 E60.09857
G1 X194.804 Y49.394 E60.12885
G1 X195.351 Y49.743 E60.15907
G1 X195.852 Y50.157 E60.18933
G1 X196.297 Y50.63 E60.21957
G1 X196.682 Y51.154 E60.24985
G1 X196.999 Y51.721 E60.28009
G1 X197.244 Y52.322 E60.31031
G1 X197.413 Y52.949 E60.34055
G1 X197.519 Y53.862 E60.38335
G1 X197.53 Y54.33 E60.40515
G1 X197.53 Y117.329 E63.33865
G1 X197.521 Y118.056 E63.3725
G1 X197.473 Y118.704 E63.40276
G1 X197.345 Y119.341 E63.43301
G1 X197.141 Y119.958 E63.46327
G1 X196.862 Y120.545 E63.49354
G1 X196.514 Y121.093 E63.52376
G1 X196.101 Y121.594 E63.554
G1 X195.629 Y122.041 E63.58427
G1 X195.106 Y122.426 E63.61451
G1 X194.54 Y122.744 E63.64474
G1 X193.938 Y122.991 E63.67504
G1 X193.312 Y123.161 E63.70524
G1 X192.369 Y123.269 E63.74944
G1 X189.718 Y123.333 E63.87292
G1 X187.052 Y123.466 E63.99721
G1 X184.356 Y123.677 E64.12313
G1 X181.706 Y123.959 E64.24722
G1 X179.036 Y124.321 E64.37269
G1 X176.424 Y124.75 E64.49594
G1 X173.771 Y125.264 E64.62177
G1 X171.145 Y125.849 E64.74705
G1 X168.588 Y126.495 E64.86985
G1 X165.985 Y127.233 E64.99584
G1 X163.397 Y128.045 E65.12214
G1 X160.901 Y128.908 E65.24511
G1 X158.397 Y129.853 E65.36974
G1 X155.914 Y130.871 E65.4947
G1 X153.44 Y131.97 E65.62075
G1 X151.051 Y133.11 E65.74401
G1 X148.662 Y134.336 E65.86904
G1 X146.306 Y135.63 E65.99421
G1 X143.997 Y136.984 E66.11885
G1 X141.734 Y138.399 E66.24312
G1 X139.483 Y139.897 E66.36903
G1 X137.331 Y141.418 E66.49174
G1 X135.159 Y143.048 E66.61819
G1 X133.063 Y144.715 E66.74289
G1 X131.028 Y146.431 E66.86684
G1 X129.022 Y148.22 E66.992
G1 X127.074 Y150.059 E67.11674
G1 X125.178 Y151.956 E67.24163
G1 X123.357 Y153.88 E67.36498
G1 X121.528 Y155.929 E67.49287
G1 X120.263 Y157.414 E67.58371
G1 X119.812 Y157.882 E67.61397
G1 X119.307 Y158.291 E67.64423
G1 X118.756 Y158.635 E67.67448
G1 X118.167 Y158.908 E67.70471
G1 X117.549 Y159.107 E67.73494
G1 X116.91 Y159.229 E67.76523
G1 X116.352 Y159.27 E67.79128
G1 X113.01 Y159.339 E67.94694
G1 X110.315 Y159.472 E68.07258
G1 X107.649 Y159.68 E68.1971
G1 X104.99 Y159.963 E68.32161
G1 X102.339 Y160.322 E68.44618
G1 X99.694 Y160.756 E68.57099
G1 X97.474 Y161.178 E68.67621
G1 X96.637 Y161.269 E68.71541
G1 X96.17 Y161.28 E68.73717
G1 X18.389 Y161.28 E72.35898
G1 X17.691 Y161.271 E72.39148
G1 X17.043 Y161.222 E72.42174
G1 X16.406 Y161.095 E72.45198
G1 X15.79 Y160.89 E72.48221
G1 X15.203 Y160.611 E72.51248
G1 X14.655 Y160.262 E72.54273
G1 X14.154 Y159.849 E72.57296
G1 X13.707 Y159.377 E72.60323
G1 X13.322 Y158.854 E72.63347
G1 X13.004 Y158.287 E72.66375
G1 X12.758 Y157.686 E72.69398
G1 X12.588 Y157.059 E72.72423
G1 X12.481 Y156.134 E72.76759
G1 X12.47 Y155.658 E72.78976
G1 X12.47 Y71.129 E76.72579
M204 S3000
M205 X10 Y10
G1 F2400 E70.72579
;MESH:trt3.stl
G0 F3000 X17.085 Y71.129
G0 X18.18 Y71.129
G0 X27.04 Y77.75
G1 F2400 E76.72579
G0 F3000 X27.47 Y77.75
M204 S1800
M205 X8 Y8
;TYPE:WALL-OUTER
G1 F1500 X27.543 Y77.56 E76.73527
G1 X27.701 Y77.474 E76.74364
G1 X27.75 Y77.47 E76.74593
G1 X37.75 Y77.47 E77.21157
G1 X37.919 Y77.525 E77.21985
G1 X38.022 Y77.681 E77.22855
G1 X38.03 Y77.75 E77.23179
G1 X38.029 Y100.277 E78.28074
G1 X37.946 Y100.451 E78.28972
G1 X37.769 Y100.53 E78.29874
G1 X27.727 Y100.53 E78.76634
G1 X27.568 Y100.464 E78.77435
G1 X27.498 Y100.373 E78.7797
G1 X27.47 Y100.25 E78.78557
G1 X27.47 Y77.75 E79.83327
M204 S3000
M205 X10 Y10
G0 F3000 X27.541 Y77.563
G0 X27.04 Y77.563
G0 X86.888 Y71.138
G0 X89.54 Y66
G0 X89.97 Y66
M204 S1800
M205 X8 Y8
G1 F1500 X90.031 Y65.824 E79.84194
G1 X90.155 Y65.736 E79.84902
G1 X91.066 Y65.72 E79.89145
G1 X176.94 Y65.719 E83.8901
G1 X188.25 Y65.72 E84.41674
G1 X188.408 Y65.768 E84.42443
G1 X188.514 Y65.904 E84.43246
G1 X188.53 Y66 E84.43699
G1 X188.53 Y106 E86.29956
G1 X188.469 Y106.176 E86.30823
G1 X188.345 Y106.264 E86.31531
G1 X187.434 Y106.28 E86.35774
G1 X184.822 Y106.281 E86.47937
G1 X90.25 Y106.28 E90.88304
G1 X90.055 Y106.202 E90.89282
G1 X89.97 Y106.021 E90.90213
G1 X89.97 Y66 E92.76567
M204 S3000
M205 X10 Y10
G0 F3000 X90.031 Y65.824
G0 X90.042 Y65.816
G0 X89.54 Y65.816
G0 X89.076 Y58.281
G0 X89.482 Y58.413
M204 S1800
M205 X8 Y8
G1 F1500 X90.057 Y56.65 E92.85202
G1 X90.159 Y56.51 E92.86009
G1 X91.657 Y55.42 E92.94635
G1 X91.822 Y55.367 E92.95442
G1 X93.678 Y55.367 E93.04084
G1 X93.843 Y55.42 E93.04891
G1 X95.341 Y56.51 E93.13518
G1 X95.443 Y56.65 E93.14324
G1 X96.018 Y58.413 E93.22959
G1 X96.023 Y58.571 E93.23695
G1 X95.443 Y60.35 E93.32408
G1 X95.341 Y60.49 E93.33215
G1 X93.843 Y61.58 E93.41841
G1 X93.678 Y61.633 E93.42648
G1 X91.822 Y61.633 E93.5129
G1 X91.609 Y61.545 E93.52364
G1 X90.159 Y60.49 E93.60713
G1 X90.057 Y60.35 E93.6152
G1 X89.482 Y58.587 E93.70155
G1 X89.482 Y58.413 E93.70965
M204 S3000
M205 X10 Y10
G0 F3000 X89.544 Y58.223
G0 X89.137 Y58.091
G0 X89.066 Y113.692
G0 X89.475 Y113.561
M204 S1800
M205 X8 Y8
G1 F1500 X89.482 Y113.413 E93.71655
G1 X90.064 Y111.631 E93.80384
G1 X90.159 Y111.51 E93.811
G1 X91.657 Y110.42 E93.89727
G1 X91.822 Y110.367 E93.90534
G1 X93.678 Y110.367 E93.99176
G1 X93.843 Y110.42 E93.99983
G1 X95.341 Y111.51 E94.0861
G1 X95.443 Y111.65 E94.09416
G1 X96.018 Y113.413 E94.18051
G1 X96.019 Y113.584 E94.18847
G1 X95.443 Y115.35 E94.27497
G1 X95.341 Y115.49 E94.28303
G1 X93.821 Y116.594 E94.37051
G1 X93.678 Y116.634 E94.37742
G1 X91.802 Y116.633 E94.46478
G1 X91.657 Y116.58 E94.47197
G1 X90.135 Y115.471 E94.55966
G1 X90.057 Y115.35 E94.56636
G1 X89.475 Y113.561 E94.65396
M204 S3000
M205 X10 Y10
G0 F3000 X89.482 Y113.413
G0 X89.498 Y113.364
G0 X89.092 Y113.232
G0 X99.54 Y150.25
G0 X99.97 Y150.25
M204 S1800
M205 X8 Y8
G1 F1500 X99.971 Y129.973 E95.59814
