;FLAVOR:Marlin
;TIME:1915
;Filament used: 1.49305m
;Layer height: 0.2
;MINX:62.098
;MINY:70.641
;MINZ:0.2
;MAXX:135.399
;MAXY:137.9
;MAXZ:1.6
;Generated with Cura_SteamEngine 5.0.0
M140 S60
M105
M190 S60
M104 S200
M105
M109 S200
M82 ;absolute extrusion mode
G21 ;metric values
G90 ;absolute positioning
M82 ;set extruder to absolute mode
M107 ;start with the fan off
G28 X0 Y0 ;move X/Y to min endstops
G28 Z0 ;move Z to min endstops
G1 Z15.0 F100 ;move the platform down 15mm
G92 E0 ;zero the extruded length
G1 F200 E3 ;extrude 3mm of feed stock
G92 E0 ;zero the extruded length again
G1 F100
G0 Y20 F100
M117 Printing...
G5
G92 E0
G92 E0
G1 F2400 E-6
;LAYER_COUNT:8
;LAYER:0
M107
M204 S3000
M205 X10 Y10
G1 F600 Z0.275
G0 F3000 X68.883 Y74.078 Z0.275
G1 F600 Z0.2
G0 F3000 X62.098 Y84.116
M204 S1800
M205 X8 Y8
;TYPE:SKIRT
G1 F2400 E0
G1 X62.108 Y83.413 E0.03274
G1 X62.158 Y82.699 E0.06607
G1 X62.287 Y81.996 E0.09935
G1 X62.494 Y81.311 E0.13267
G1 X62.777 Y80.654 E0.16598
G1 X63.13 Y80.033 E0.19924
G1 X63.551 Y79.454 E0.23257
G1 X64.093 Y78.87 E0.26967
G1 X65.047 Y77.962 E0.331
G1 X66.988 Y76.052 E0.4578
G1 X68.883 Y74.078 E0.58522
G1 X69.406 Y73.59 E0.61853
G1 X69.981 Y73.164 E0.65185
G1 X70.599 Y72.805 E0.68513
G1 X71.254 Y72.517 E0.71845
G1 X71.937 Y72.304 E0.75176
G1 X72.639 Y72.168 E0.78506
G1 X73.352 Y72.112 E0.81836
G1 X76.37 Y72.042 E0.95893
G1 X79.048 Y71.908 E1.08378
G1 X81.667 Y71.702 E1.20611
G1 X84.292 Y71.42 E1.32905
G1 X86.922 Y71.064 E1.45263
G1 X88.991 Y70.731 E1.55021
G1 X89.828 Y70.653 E1.58935
G1 X90.327 Y70.641 E1.61259
G1 X99.29 Y70.641 E2.02995
G1 X100.08 Y70.652 E2.06674
G1 X100.972 Y70.727 E2.10842
G1 X102.155 Y70.912 E2.16417
G1 X102.513 Y70.974 E2.18109
G1 X105.129 Y71.35 E2.30416
G1 X107.763 Y71.652 E2.42761
G1 X110.39 Y71.879 E2.55039
G1 X113.036 Y72.033 E2.67381
G1 X115.673 Y72.11 E2.79665
G1 X118.38 Y72.114 E2.9227
G1 X119.313 Y72.1 E2.96615
G1 X128.385 Y72.101 E3.38858
G1 X129.083 Y72.111 E3.42108
G1 X129.796 Y72.161 E3.45436
G1 X130.5 Y72.29 E3.48769
G1 X131.184 Y72.498 E3.52098
G1 X131.841 Y72.78 E3.55427
G1 X132.463 Y73.134 E3.5876
G1 X133.041 Y73.555 E3.62089
G1 X133.569 Y74.038 E3.65422
G1 X134.039 Y74.576 E3.68748
G1 X134.447 Y75.164 E3.72081
G1 X134.786 Y75.794 E3.75412
G1 X135.053 Y76.457 E3.7874
G1 X135.244 Y77.147 E3.82074
G1 X135.357 Y77.853 E3.85403
G1 X135.397 Y78.65 E3.89119
G1 X135.399 Y125.92 E6.09228
G1 X135.385 Y126.627 E6.1252
G1 X135.331 Y127.34 E6.1585
G1 X135.197 Y128.043 E6.19182
G1 X134.986 Y128.726 E6.22511
G1 X134.701 Y129.382 E6.25841
G1 X134.343 Y130.001 E6.29171
G1 X133.919 Y130.577 E6.32502
G1 X133.4 Y131.135 E6.3605
G1 X132.418 Y132.07 E6.42364
G1 X130.506 Y133.95 E6.5485
G1 X128.61 Y135.924 E6.67595
G1 X128.086 Y136.412 E6.70929
G1 X127.511 Y136.837 E6.74258
G1 X126.893 Y137.196 E6.77586
G1 X126.238 Y137.484 E6.80918
G1 X125.555 Y137.697 E6.84249
G1 X124.853 Y137.832 E6.87578
G1 X124.192 Y137.887 E6.90667
G1 X123.67 Y137.9 E6.93098
G1 X114.615 Y137.899 E7.35262
G1 X112.87 Y137.874 E7.43388
G1 X111.95 Y137.849 E7.47674
G1 X109.293 Y137.851 E7.60046
G1 X107.197 Y137.9 E7.69808
G1 X98.115 Y137.899 E8.12098
G1 X97.418 Y137.889 E8.15344
G1 X96.984 Y137.868 E8.17367
G1 X94.647 Y137.675 E8.28286
G1 X91.956 Y137.524 E8.40836
G1 X89.345 Y137.45 E8.52999
G1 X86.667 Y137.45 E8.65469
G1 X84.065 Y137.524 E8.7759
G1 X81.374 Y137.677 E8.9014
G1 X79.007 Y137.87 E9.01199
G1 X78.347 Y137.897 E9.04275
G1 X69.112 Y137.899 E9.47277
G1 X68.414 Y137.889 E9.50527
G1 X67.701 Y137.839 E9.53855
G1 X66.997 Y137.71 E9.57188
G1 X66.313 Y137.502 E9.60517
G1 X65.656 Y137.22 E9.63846
G1 X65.034 Y136.866 E9.67179
G1 X64.456 Y136.445 E9.70508
G1 X63.928 Y135.962 E9.7384
G1 X63.458 Y135.424 E9.77167
G1 X63.05 Y134.836 E9.80499
G1 X62.711 Y134.206 E9.83831
G1 X62.444 Y133.543 E9.87159
G1 X62.253 Y132.853 E9.90493
G1 X62.14 Y132.147 E9.93822
G1 X62.099 Y131.331 E9.97626
G1 X62.098 Y84.116 E12.17479
M204 S3000
M205 X10 Y10
G0 F3000 X62.658 Y84.124
M204 S1800
M205 X8 Y8
G1 F2400 X62.668 Y83.421 E12.20753
G1 X62.717 Y82.74 E12.23932
G1 X62.846 Y82.069 E12.27114
G1 X63.053 Y81.417 E12.30299
G1 X63.334 Y80.794 E12.33482
G1 X63.685 Y80.209 E12.36658
G1 X64.103 Y79.668 E12.39842
G1 X64.479 Y79.275 E12.42374
G1 X65.49 Y78.312 E12.48876
G1 X67.371 Y76.461 E12.61164
G1 X69.287 Y74.466 E12.74044
G1 X69.788 Y74.001 E12.77227
G1 X70.34 Y73.599 E12.80407
G1 X70.935 Y73.263 E12.83588
G1 X71.566 Y73 E12.86772
G1 X72.222 Y72.811 E12.8995
G1 X72.897 Y72.701 E12.93135
G1 X73.365 Y72.672 E12.95318
G1 X76.374 Y72.603 E13.09333
G1 X79.085 Y72.466 E13.21973
G1 X81.701 Y72.261 E13.34191
G1 X84.389 Y71.972 E13.4678
G1 X87.007 Y71.618 E13.59082
G1 X89.08 Y71.284 E13.68859
G1 X89.843 Y71.212 E13.72427
G1 X90.327 Y71.201 E13.74682
G1 X99.29 Y71.201 E14.16417
G1 X100.072 Y71.212 E14.20059
G1 X100.886 Y71.28 E14.23862
G1 X102.059 Y71.464 E14.29391
G1 X102.407 Y71.524 E14.31035
G1 X105.055 Y71.905 E14.43493
G1 X107.72 Y72.211 E14.55984
G1 X110.346 Y72.437 E14.68256
G1 X113.022 Y72.593 E14.80738
G1 X115.655 Y72.67 E14.93004
G1 X118.387 Y72.674 E15.05725
G1 X119.313 Y72.66 E15.10038
G1 X128.377 Y72.661 E15.52243
G1 X129.075 Y72.671 E15.55494
G1 X129.756 Y72.72 E15.58673
G1 X130.427 Y72.849 E15.61855
G1 X131.078 Y73.056 E15.65036
G1 X131.701 Y73.337 E15.68218
G1 X132.287 Y73.689 E15.71401
G1 X132.827 Y74.107 E15.74581
G1 X133.315 Y74.585 E15.77762
G1 X133.744 Y75.117 E15.80944
G1 X134.108 Y75.695 E15.84125
G1 X134.402 Y76.312 E15.87307
G1 X134.621 Y76.959 E15.90488
G1 X134.764 Y77.627 E15.93669
G1 X134.829 Y78.346 E15.9703
G1 X134.84 Y78.83 E15.99285
G1 X134.839 Y125.909 E18.18504
G1 X134.825 Y126.616 E18.21797
G1 X134.771 Y127.297 E18.24978
G1 X134.639 Y127.967 E18.28158
G1 X134.429 Y128.617 E18.31338
G1 X134.144 Y129.238 E18.3452
G1 X133.789 Y129.822 E18.37702
G1 X133.368 Y130.36 E18.40883
G1 X133.013 Y130.729 E18.43268
G1 X132.048 Y131.648 E18.49473
G1 X130.123 Y133.541 E18.62044
G1 X128.206 Y135.536 E18.74927
G1 X127.705 Y136.001 E18.7811
G1 X127.152 Y136.403 E18.81294
G1 X126.557 Y136.738 E18.84473
G1 X125.927 Y137.001 E18.87652
G1 X125.27 Y137.189 E18.90834
G1 X124.595 Y137.299 E18.94019
G1 X123.85 Y137.337 E18.97492
G1 X114.623 Y137.339 E19.40457
G1 X112.885 Y137.314 E19.48551
G1 X111.965 Y137.289 E19.52836
G1 X109.279 Y137.291 E19.65343
G1 X107.197 Y137.34 E19.75041
G1 X98.123 Y137.339 E20.17293
G1 X97.426 Y137.329 E20.20539
G1 X97.03 Y137.31 E20.22385
G1 X94.685 Y137.117 E20.33341
G1 X92.004 Y136.966 E20.45845
G1 X89.326 Y136.89 E20.5832
G1 X86.686 Y136.89 E20.70613
G1 X84.017 Y136.966 E20.83046
G1 X81.34 Y137.118 E20.95531
G1 X78.962 Y137.312 E21.06641
G1 X78.331 Y137.338 E21.09581
G1 X69.12 Y137.339 E21.52472
G1 X68.422 Y137.329 E21.55722
G1 X67.741 Y137.28 E21.58901
G1 X67.07 Y137.151 E21.62083
G1 X66.419 Y136.944 E21.65264
G1 X65.796 Y136.663 E21.68446
G1 X65.21 Y136.311 E21.71629
G1 X64.67 Y135.893 E21.74809
G1 X64.182 Y135.415 E21.7799
G1 X63.753 Y134.883 E21.81172
G1 X63.389 Y134.305 E21.84353
G1 X63.095 Y133.688 E21.87535
G1 X62.876 Y133.041 E21.90716
G1 X62.733 Y132.373 E21.93897
G1 X62.668 Y131.648 E21.97286
G1 X62.657 Y131.158 E21.99569
G1 X62.658 Y84.124 E24.18579
M204 S3000
M205 X10 Y10
G0 F3000 X63.218 Y84.132
M204 S1800
M205 X8 Y8
G1 F2400 X63.228 Y83.429 E24.21853
G1 X63.277 Y82.781 E24.24878
G1 X63.405 Y82.144 E24.27904
G1 X63.611 Y81.528 E24.30928
G1 X63.89 Y80.942 E24.33951
G1 X64.24 Y80.394 E24.36978
G1 X64.865 Y79.681 E24.41393
G1 X65.844 Y78.749 E24.47687
G1 X67.789 Y76.835 E24.60394
G1 X69.691 Y74.854 E24.73182
G1 X70.169 Y74.413 E24.7621
G1 X70.697 Y74.035 E24.79234
G1 X71.268 Y73.725 E24.82259
G1 X71.872 Y73.487 E24.85282
G1 X72.501 Y73.325 E24.88306
G1 X73.378 Y73.231 E24.92413
G1 X76.451 Y73.16 E25.06726
G1 X79.086 Y73.028 E25.19012
G1 X81.77 Y72.817 E25.31548
G1 X84.45 Y72.529 E25.44099
G1 X87.092 Y72.171 E25.56514
G1 X89.169 Y71.837 E25.66309
G1 X89.859 Y71.772 E25.69536
G1 X90.327 Y71.761 E25.71716
G1 X99.29 Y71.761 E26.13452
G1 X100.064 Y71.772 E26.17056
G1 X100.8 Y71.834 E26.20495
G1 X101.963 Y72.016 E26.25977
G1 X102.329 Y72.08 E26.27707
G1 X104.986 Y72.461 E26.40206
G1 X107.643 Y72.766 E26.52659
G1 X110.301 Y72.996 E26.65082
G1 X112.974 Y73.151 E26.77549
G1 X115.674 Y73.23 E26.90127
G1 X118.395 Y73.234 E27.02797
G1 X119.313 Y73.22 E27.07072
G1 X128.369 Y73.221 E27.49241
G1 X129.067 Y73.231 E27.52491
G1 X129.714 Y73.28 E27.55513
G1 X130.351 Y73.408 E27.58538
G1 X130.967 Y73.614 E27.61563
G1 X131.554 Y73.894 E27.64591
G1 X132.101 Y74.243 E27.67612
G1 X132.602 Y74.657 E27.70639
G1 X133.047 Y75.13 E27.73663
G1 X133.432 Y75.654 E27.7669
G1 X133.749 Y76.221 E27.79715
G1 X133.994 Y76.822 E27.82737
G1 X134.163 Y77.449 E27.85761
G1 X134.269 Y78.362 E27.90041
G1 X134.28 Y78.83 E27.92221
G1 X134.279 Y125.898 E30.11389
G1 X134.265 Y126.605 E30.14682
G1 X134.212 Y127.252 E30.17705
G1 X134.08 Y127.888 E30.20729
G1 X133.871 Y128.503 E30.23754
G1 X133.588 Y129.088 E30.2678
G1 X133.236 Y129.633 E30.29801
G1 X132.627 Y130.324 E30.3409
G1 X131.651 Y131.253 E30.40364
G1 X129.705 Y133.168 E30.53077
G1 X127.802 Y135.148 E30.65865
G1 X127.324 Y135.588 E30.6889
G1 X126.796 Y135.966 E30.71913
G1 X126.225 Y136.276 E30.74939
G1 X125.62 Y136.514 E30.77966
G1 X124.991 Y136.675 E30.80989
G1 X124.157 Y136.768 E30.84897
G1 X123.67 Y136.78 E30.87165
G1 X114.631 Y136.779 E31.29255
G1 X112.9 Y136.754 E31.37316
G1 X111.98 Y136.729 E31.41601
G1 X109.266 Y136.731 E31.54239
G1 X107.197 Y136.78 E31.63876
G1 X98.131 Y136.779 E32.06091
G1 X97.434 Y136.769 E32.09337
G1 X97.076 Y136.752 E32.11005
G1 X94.725 Y136.558 E32.2199
G1 X92.015 Y136.406 E32.34629
G1 X89.342 Y136.33 E32.4708
G1 X86.67 Y136.33 E32.59522
G1 X83.971 Y136.406 E32.72095
G1 X81.34 Y136.556 E32.84366
G1 X78.916 Y136.754 E32.95691
G1 X78.315 Y136.778 E32.98491
G1 X69.128 Y136.779 E33.4127
G1 X68.43 Y136.769 E33.4452
G1 X67.783 Y136.72 E33.47542
G1 X67.146 Y136.592 E33.50567
G1 X66.53 Y136.386 E33.53592
G1 X65.943 Y136.106 E33.5662
G1 X65.396 Y135.757 E33.59641
G1 X64.895 Y135.343 E33.62668
G1 X64.45 Y134.87 E33.65692
G1 X64.065 Y134.346 E33.68719
G1 X63.748 Y133.779 E33.71744
G1 X63.503 Y133.178 E33.74766
G1 X63.334 Y132.551 E33.7779
G1 X63.228 Y131.633 E33.82093
G1 X63.217 Y131.158 E33.84305
G1 X63.218 Y84.132 E36.03278
M204 S3000
M205 X10 Y10
G1 F2400 E30.03278
;MESH:trt4.stl(3)
G0 F3000 X67.832 Y84.132
G0 X68.927 Y84.132
G0 X73.935 Y83.938
G0 X75.858 Y83.191
G1 F2400 E36.03278
G0 F3000 X76.245 Y83.378
M204 S1800
M205 X8 Y8
;TYPE:WALL-OUTER
G1 F1500 X76.997 Y81.813 E36.11363
G1 X77.097 Y81.699 E36.12069
G1 X77.187 Y81.661 E36.12524
G1 X78.893 Y81.273 E36.20671
G1 X79.008 Y81.276 E36.21207
G1 X79.117 Y81.33 E36.21773
G1 X80.474 Y82.414 E36.2986
G1 X80.549 Y82.505 E36.30409
G1 X80.579 Y82.633 E36.31022
G1 X80.579 Y84.367 E36.39096
G1 X80.549 Y84.495 E36.39708
G1 X80.145 Y84.849 E36.42209
G1 X79.117 Y85.67 E36.48335
G1 X78.942 Y85.731 E36.49198
G1 X77.983 Y85.52 E36.5377
G1 X77.187 Y85.339 E36.57572
G1 X77.022 Y85.23 E36.58492
G1 X76.621 Y84.404 E36.62768
G1 X76.245 Y83.622 E36.66808
G1 X76.218 Y83.5 E36.6739
G1 X76.245 Y83.378 E36.67972
M204 S3000
M205 X10 Y10
G0 F3000 X76.331 Y83.198
G0 X75.945 Y83.012
G0 X77.787 Y88.466
G0 X78.218 Y88.466
M204 S1800
M205 X8 Y8
G1 F1500 X78.274 Y88.33 E36.68657
G1 X78.362 Y88.254 E36.69198
G1 X78.677 Y88.22 E36.70673
G1 X83.217 Y88.22 E36.91814
G1 X83.217 Y80.672 E37.2696
G1 X83.217 Y78.78 E37.3577
G1 X73.777 Y78.78 E37.79727
G1 X73.778 Y83.5 E38.01705
G1 X73.75 Y83.622 E38.02288
G1 X73.589 Y83.765 E38.03291
G1 X73.497 Y83.78 E38.03725
G1 X68.777 Y83.78 E38.25703
G1 X68.777 Y131.22 E40.46603
G1 X78.217 Y131.22 E40.9056
G1 X78.218 Y88.466 E42.89641
M204 S3000
M205 X10 Y10
G0 F3000 X78.274 Y88.33
G0 X78.314 Y88.296
G0 X78.094 Y87.762
M204 S1800
M205 X8 Y8
;TYPE:WALL-INNER
G1 F1500 X78.599 Y87.659 E42.92041
G1 F1502.7 X79.304 Y87.661 E42.95317
G1 X80.01 Y87.659 E42.98599
G1 F1500 X82.657 Y87.66 E43.10925
G1 X82.657 Y80.672 E43.43464
G1 X82.657 Y79.34 E43.49666
G1 X74.337 Y79.34 E43.88407
G1 X74.338 Y83.5 E44.07778
G1 X74.255 Y83.864 E44.09517
G1 X74.018 Y84.16 E44.11282
G1 X73.692 Y84.318 E44.12969
G1 X73.497 Y84.34 E44.13883
G1 X69.337 Y84.34 E44.33254
G1 X69.337 Y130.66 E46.48939
G1 X77.657 Y130.66 E46.8768
G1 X77.657 Y88.464 E48.84163
G1 X77.721 Y88.177 E48.85532
G1 X77.828 Y87.991 E48.86531
G1 X78.094 Y87.762 E48.88165
M204 S3000
M205 X10 Y10
G0 F3000 X76.804 Y85.624
G0 X75.78 Y83.5
G0 X75.74 Y83.135
M204 S1800
M205 X8 Y8
G1 F1500 X76.492 Y81.57 E48.9625
G1 X76.595 Y81.407 E48.97148
G1 X76.793 Y81.229 E48.98388
G1 X77.063 Y81.115 E48.99753
G1 X78.755 Y80.729 E49.07834
G1 X79.14 Y80.732 E49.09626
G1 X79.467 Y80.892 E49.11322
G1 X80.824 Y81.976 E49.19409
G1 X81.048 Y82.251 E49.2106
G1 X81.139 Y82.633 E49.22889
G1 X81.139 Y84.367 E49.30963
G1 X81.048 Y84.749 E49.32792
G1 X80.824 Y85.024 E49.34443
G1 X79.467 Y86.108 E49.42531
G1 X79.087 Y86.279 E49.44471
G1 X78.755 Y86.271 E49.46017
G1 X77.859 Y86.065 E49.50298
G1 X77.063 Y85.885 E49.54098
G1 X76.744 Y85.736 E49.55738
G1 X76.532 Y85.503 E49.57205
G1 X76.116 Y84.646 E49.6164
G1 X75.74 Y83.864 E49.65681
G1 X75.658 Y83.5 E49.67418
G1 X75.74 Y83.135 E49.6916
M204 S3000
M205 X10 Y10
G0 F3000 X75.987 Y81.328
M204 S1800
M205 X8 Y8
G1 F1500 X76.159 Y81.055 E49.70663
G1 X76.489 Y80.759 E49.72727
G1 X76.938 Y80.569 E49.74997
G1 F1383.9 X77.491 Y80.395 E49.77923
G1 F1194.9 X78.044 Y80.22 E49.81314
G1 F1052.6 X78.598 Y80.045 E49.85169
G1 F992.9 X78.599 Y80.044 E49.85179
G1 F1052.6 X78.021 Y79.997 E49.89027
G1 F1194.9 X77.443 Y79.949 E49.92417
G1 F1383.9 X76.864 Y79.901 E49.95349
G1 F1500 X74.897 Y79.9 E50.04508
G1 X74.897 Y82.816 E50.18087
G1 F1272.7 X74.998 Y83.5 E50.21881
G1 X75.235 Y82.893 E50.25457
G1 F1500 X75.987 Y81.328 E50.33542
M204 S3000
M205 X10 Y10
G0 F3000 X78.599 Y80.044
M204 S1800
M205 X8 Y8
G1 F988.2 X79.305 Y80.045 E50.38532
M204 S3000
M205 X10 Y10
G0 F3000 X81.173 Y81.539
M204 S1800
M205 X8 Y8
G1 F1500 X81.547 Y81.996 E50.41282
G1 F1618.5 X81.658 Y82.633 E50.44072
G1 F1753.7 X81.658 Y84.367 E50.50978
G1 F1732 X81.644 Y84.603 E50.51932
G1 F1600 X81.547 Y85.004 E50.53733
G1 F1500 X81.173 Y85.461 E50.56483
G1 X79.816 Y86.545 E50.6457
G1 F1267 X79.294 Y86.914 E50.68094
G1 F1050 X79.207 Y86.965 E50.68765
G1 F1205.2 X80.01 Y87.099 E50.73483
G1 F1500 X82.097 Y87.1 E50.83201
G1 X82.097 Y85.136 E50.92346
G1 F1618.5 X82.138 Y84.367 E50.95669
G1 F1753.7 X82.138 Y82.633 E51.02576
G1 F1618.5 X82.097 Y81.864 E51.05899
G1 F1500 X82.097 Y80.672 E51.1145
G1 X82.097 Y79.9 E51.15044
G1 X80.01 Y79.901 E51.24762
G1 F1188.1 X79.305 Y80.045 E51.28992
G1 X79.816 Y80.455 E51.32844
G1 F1500 X81.173 Y81.539 E51.40931
M204 S3000
M205 X10 Y10
G0 F3000 X80.945 Y84.679
G0 X79.207 Y86.965
M204 S1800
M205 X8 Y8
G1 F1007.2 X78.677 Y86.965 E51.44607
G1 F1000 X78.599 Y86.956 E51.45155
M204 S3000
M205 X10 Y10
G0 F3000 X77.382 Y87.652
M204 S1800
M205 X8 Y8
G1 F1500 X77.826 Y87.27 E51.47882
G1 F1261.3 X78.497 Y86.994 E51.519
G1 F1038.3 X78.599 Y86.956 E51.52632
G1 F1194.9 X77.735 Y86.61 E51.58073
G1 F1500 X76.938 Y86.431 E51.61876
G1 X76.602 Y86.307 E51.63544
G1 X76.214 Y86.008 E51.65825
G1 X75.987 Y85.672 E51.67713
G1 X75.235 Y84.107 E51.75798
G1 F1261.3 X74.997 Y83.631 E51.78745
G1 X74.76 Y84.107 E51.8169
G1 F1500 X74.366 Y84.6 E51.84629
G1 X73.821 Y84.863 E51.87446
G1 X73.497 Y84.9 E51.88965
G1 X69.897 Y84.9 E52.05728
G1 X69.897 Y130.1 E54.16198
G1 X77.097 Y130.1 E54.49724
G1 X77.098 Y88.441 E56.43706
G1 X77.133 Y88.182 E56.44923
G1 X77.204 Y87.962 E56.46
G1 X77.382 Y87.652 E56.47664
M204 S3000
M205 X10 Y10
G0 F3000 X80.596 Y86.583
M204 S1800
M205 X8 Y8
;TYPE:SKIN
G1 F1640.6 X81.581 Y86.584 E56.51857
G1 X81.581 Y85.767 E56.55336
G1 X81.166 Y86.128 E56.57677
G1 X80.596 Y86.583 E56.60782
M204 S3000
M205 X10 Y10
G0 F3000 X73.635 Y85.431
M204 S1800
M205 X8 Y8
G1 F1500 X73.497 Y85.439 E56.61426
G1 X70.437 Y85.44 E56.75675
G1 X70.437 Y129.56 E58.81116
G1 X76.557 Y129.56 E59.09613
G1 X76.558 Y88.465 E61.00969
G1 X76.638 Y87.999 E61.0317
G1 X76.721 Y87.721 E61.04521
G1 X76.99 Y87.281 E61.06923
G1 X77.253 Y87.057 E61.08531
G1 X76.775 Y86.947 E61.10815
G1 X76.282 Y86.742 E61.13301
